X: 20321
M: 3/4
L: 1/16
K: D
|:\
f6 =e2 {e}dcdB | (^G4 A2)z2 z4 |\
(A6 g2f2e2) | ({e}dcde f2)(A2d2f2) |\
e4 ea^gf edB^G | (B8 A4) :|
|:\
(f6 e2) (e=dcB) | (ABcd) e2(e2^d2e2) |\
(f6 e2) e=dcB | A4 z2(A^G ABcd) |\
e4 z2cB (cdef) | g4 z2(.g2.g2.g2) |\
(g3e/c/) Az (.g2.g2.g2) | g3e/c/ Az (.g2.g2.g2) |
g6 e2 cAGE | HC12 |\
(A6 Bc) d2e2 | ^e4 f2z2 z4 |\
(f6 =e2) {e}dcdB | (^G4 A2)z2 z4 | (A6 g2f2e2) |\
({e}dcde f2)(A2d2f2) | a6 f2 {f}edef |
d2(3(DFA) d2(3(FAd) f2(3(Adf) | (g>f)(e>d) (c>B)(A>G) (F>E)(D>C) |\
K: G
(d6 b2a2g2) | ^g4 a4 z4 | a2(ag) f2(fe) d2(dc) | (cBed d2)B2c2^c2 |\
d3^c d2B2=c2d2 | e2g4(ag) .f.e.d.c | B2c2^c2d2 d=cAF | A8 "^D.C."G4 :|


